images/sc2/DPAD.svg

<?xml version='1.0' encoding='utf-8'?>
<svg xmlns="http://www.w3.org/2000/svg" viewBox="165.695 142.362 247.568 248.983" width="99.027" height="99.5931"><path d="M 278.5586 156.1664 C 270.7944 156.6292 264.0455 157.5505 260.1308 158.8246 C 253.7496 160.9016 247.8863 167.5365 246.4296 174.3285 C 245.8413 177.0717 245.3593 188.2241 245.3593 199.1118 C 245.3593 216.6953 245.1638 219.0838 243.6093 220.4907 C 242.1459 221.8150 238.1735 222.1283 219.3593 222.3969 C 197.5083 222.7088 196.7308 222.7893 192.4004 225.2172 C 187.2550 228.1020 182.5400 234.9639 181.2480 241.4457 C 179.5410 250.0090 179.0336 274.6028 180.3222 286.2953 C 181.6275 298.1382 183.3247 303.0019 187.5254 306.9204 C 192.6375 311.6889 195.8101 312.2172 219.2714 312.2172 C 240.8465 312.2172 241.2744 312.2582 242.8027 314.4399 C 244.0977 316.2889 244.3593 320.3797 244.3593 338.7817 C 244.3593 360.0006 244.4533 361.0833 246.6836 365.3110 C 250.8966 373.2990 256.0646 375.5318 273.8593 377.0551 C 284.9716 378.0063 298.3578 377.7241 312.6758 376.2368 C 322.5143 375.2148 328.6235 371.7671 332.0332 365.3110 C 334.2628 361.0885 334.3594 359.9932 334.3594 339.1958 C 334.3594 318.7487 334.4794 317.3338 336.4316 314.8520 L 338.5058 312.2172 L 360.2539 312.2172 C 381.9962 312.2172 382.0037 312.2165 387.4316 309.4672 C 397.7639 304.2338 399.9244 294.9061 399.1093 259.0727 C 398.6818 240.2774 398.4399 238.0125 396.3984 233.7953 C 393.9687 228.7763 389.8227 225.1511 384.4609 223.3559 C 382.3546 222.6507 373.1584 222.2172 360.2832 222.2172 L 339.5058 222.2172 L 337.4316 219.5825 C 335.4749 217.0949 335.3593 215.6957 335.3593 194.5434 C 335.3593 174.1974 335.1785 171.7819 333.3828 168.2621 C 329.3280 160.3139 322.6036 157.6528 303.0703 156.2660 C 295.1006 155.7002 286.3227 155.7037 278.5586 156.1664 Z  M 295.3593 159.8774 C 320.5605 161.7819 325.5528 163.2059 329.4590 169.6118 C 331.1669 172.4126 331.3554 174.8994 331.3554 195.0160 C 331.3604 227.5708 330.1243 226.2172 359.8711 226.2172 C 379.7282 226.2172 381.1925 226.3463 385.3984 228.4672 C 392.8675 232.2337 394.2556 236.3418 394.9629 256.7641 C 395.2858 266.0887 395.1044 278.9874 394.5605 285.4282 C 393.3997 299.1724 391.6711 302.9202 385.0058 306.1469 C 381.0824 308.0461 378.9326 308.2172 359.0605 308.2172 L 337.3906 308.2172 L 334.1250 311.1333 L 330.8594 314.0493 L 330.3594 337.3833 C 329.8854 359.5013 329.7407 360.9096 327.5722 364.3969 C 324.2323 369.7681 318.8595 371.9112 306.8593 372.6626 C 301.3593 373.0070 294.6093 373.4613 291.8593 373.6723 C 289.1093 373.8832 280.7219 373.4856 273.2207 372.7876 C 257.3178 371.3076 253.3356 369.5773 250.2636 362.8130 C 248.6393 359.2366 248.4018 356.0187 248.3828 337.4184 C 248.3598 315.0643 247.7645 311.5749 243.6464 309.6040 C 242.6635 309.1337 231.4287 308.5166 218.6796 308.2329 C 197.1717 307.7541 195.2961 307.5665 192.6796 305.6255 C 185.2037 300.0794 183.7872 293.8302 183.9765 267.2172 C 184.1625 241.0753 186.5190 232.8452 195.0214 228.6235 C 198.3760 226.9578 201.5731 226.6831 220.3593 226.4418 C 234.1700 226.2644 242.6772 225.7502 244.1445 225.0043 C 245.4008 224.3657 247.3133 222.4119 248.3945 220.6625 C 250.1908 217.7561 250.3593 215.6102 250.3593 195.7836 C 250.3593 181.7078 250.7544 173.3178 251.4824 171.9008 C 253.7475 167.4918 257.9075 164.1137 262.8320 162.6840 C 268.8864 160.9263 287.7289 159.3008 295.3593 159.8774 Z  M 277.4668 172.0297 C 269.2129 172.5446 262.6649 173.5720 261.1757 174.9028 C 259.7070 176.2154 259.4510 179.3723 259.1757 199.5629 C 258.8130 226.1744 258.1435 228.8584 250.8593 232.9418 C 247.0399 235.0829 245.8185 235.1856 223.8007 235.2016 C 206.6960 235.2138 200.2913 235.5475 198.9961 236.4946 C 196.3361 238.4396 195.3509 244.2057 194.6875 261.7172 C 194.0960 277.3301 195.3177 292.9098 197.3984 296.2836 C 198.1133 297.4429 202.9733 297.8131 222.7519 298.2172 C 249.9287 298.7726 250.0740 298.8091 255.1093 306.2075 C 257.2823 309.4009 257.3593 310.3017 257.3593 332.6743 C 257.3593 350.6692 257.6637 356.2507 258.7246 357.7016 C 259.7355 359.0841 262.0072 359.7621 267.4746 360.3130 C 275.5240 361.1240 309.8519 360.6150 315.1465 359.6059 C 320.8527 358.5183 321.3594 356.2132 321.3594 331.4145 C 321.3594 310.3482 321.4452 309.3840 323.6172 306.1157 C 324.8591 304.2469 327.8805 301.7047 330.3301 300.4672 C 334.5515 298.3346 335.9455 298.2172 357.0488 298.2172 C 379.0424 298.2172 379.3318 298.1898 380.7637 295.9672 C 385.1350 289.1820 384.8835 241.3476 380.4531 236.9067 C 379.6315 236.0831 371.9133 235.5633 355.3828 235.2172 C 333.0908 234.7505 331.3118 234.5761 328.6797 232.6118 C 322.2944 227.8465 321.9084 226.0987 321.3594 199.4282 C 320.9673 180.3819 320.5658 174.9581 319.4941 174.2973 C 318.7424 173.8339 311.7674 172.9054 303.9941 172.2328 C 295.6810 171.5135 285.7206 171.5148 277.4668 172.0297 Z  M 268.3593 176.8813 C 274.0750 175.7452 305.2467 175.7479 311.8594 176.8813 L 316.8594 177.7387 L 317.3594 201.2270 C 317.8573 224.6241 317.8711 224.7346 320.6015 229.3793 C 322.1091 231.9439 325.0341 235.0939 327.1015 236.3793 C 330.6914 238.6113 331.9155 238.7397 354.3594 239.2172 L 377.8594 239.7172 L 378.6640 245.2172 C 379.6920 252.2484 379.6835 279.8777 378.6503 287.7172 L 377.8593 293.7172 L 354.8593 294.2172 C 328.9076 294.7814 326.6926 295.3254 320.9238 302.5590 L 317.8593 306.4028 L 317.0000 330.5590 C 316.5273 343.8457 316.0500 354.8188 315.9394 354.9438 C 315.8288 355.0688 312.6155 355.6226 308.7988 356.1743 L 308.7988 356.1743 C 297.0314 357.8751 268.6493 357.0759 262.9355 354.8833 C 261.7466 354.4272 261.4360 350.1132 261.1757 330.3637 L 260.8593 306.3989 L 257.7539 302.5571 C 251.6089 294.9592 250.7697 294.7564 224.1738 294.4028 L 200.4882 294.0883 L 199.6738 288.4028 C 198.6268 281.0897 198.8768 250.0843 200.0293 244.2172 L 200.9121 239.7172 L 225.3867 239.2172 C 248.8544 238.7377 250.0147 238.6202 253.6191 236.3793 C 255.6864 235.0939 258.6114 231.9439 260.1191 229.3793 C 262.8493 224.7349 262.8613 224.6230 263.3593 201.2426 L 263.8593 177.7700 Z " style="fill:#000000" /></svg>

<svg xmlns="http://www.w3.org/2000/svg" width="99.027" height="99.593" viewBox="165.695 142.362 247.568 248.983"><path d="M278.559 156.166c-7.765.463-14.514 1.385-18.428 2.659-6.381 2.077-12.245 8.712-13.701 15.504-.589 2.743-1.07 13.895-1.07 24.783 0 17.583-.196 19.972-1.75 21.379-1.464 1.324-5.437 1.637-24.25 1.906-21.852.312-22.63.392-26.96 2.82-5.145 2.885-9.86 9.747-11.152 16.229-1.707 8.563-2.214 33.157-.926 44.85 1.305 11.842 3.003 16.706 7.203 20.624 5.112 4.769 8.285 5.297 31.746 5.297 21.576 0 22.003.041 23.532 2.223 1.295 1.849 1.556 5.94 1.556 24.342 0 21.219.094 22.301 2.325 26.529 4.213 7.988 9.38 10.22 27.175 11.744 11.113.951 24.499.67 38.817-.818 9.838-1.022 15.947-4.47 19.357-10.926 2.23-4.222 2.326-5.318 2.326-26.115 0-20.447.12-21.862 2.073-24.344l2.074-2.635h21.748c21.742 0 21.75 0 27.178-2.75 10.332-5.233 12.492-14.56 11.677-50.394-.427-18.796-.67-21.06-2.71-25.278-2.43-5.019-6.576-8.644-11.938-10.44-2.106-.704-11.303-1.138-24.178-1.138h-20.777l-2.074-2.635c-1.957-2.487-2.073-3.886-2.073-25.039 0-20.346-.18-22.761-1.976-26.28-4.055-7.95-10.78-10.61-30.313-11.997-7.97-.566-16.747-.562-24.511-.1m16.8 3.711c25.202 1.905 30.194 3.329 34.1 9.735 1.708 2.8 1.896 5.287 1.896 25.404.005 32.555-1.23 31.201 28.516 31.201 19.857 0 21.322.13 25.527 2.25 7.47 3.767 8.858 7.875 9.565 28.297.323 9.325.141 22.223-.403 28.664-1.16 13.744-2.889 17.492-9.554 20.719-3.924 1.9-6.073 2.07-25.945 2.07h-21.67l-3.266 2.916-3.266 2.916-.5 23.334c-.474 22.118-.618 23.527-2.787 27.014-3.34 5.371-8.712 7.514-20.713 8.266-5.5.344-12.25.798-15 1.01-2.75.21-11.137-.187-18.638-.885-15.903-1.48-19.885-3.21-22.957-9.975-1.625-3.576-1.862-6.794-1.881-25.395-.023-22.354-.619-25.843-4.737-27.814-.982-.47-12.217-1.087-24.966-1.371-21.508-.479-23.384-.666-26-2.608-7.476-5.546-8.893-11.795-8.704-38.408.186-26.142 2.543-34.372 11.045-38.593 3.355-1.666 6.552-1.94 25.338-2.182 13.811-.178 22.318-.692 23.785-1.438 1.257-.638 3.17-2.592 4.25-4.341 1.797-2.907 1.965-5.053 1.965-24.88 0-14.075.395-22.465 1.123-23.882 2.266-4.41 6.426-7.787 11.35-9.217 6.054-1.758 24.897-3.383 32.527-2.807m-17.892 12.153c-8.254.515-14.802 1.542-16.291 2.873-1.469 1.312-1.725 4.47-2 24.66-.363 26.611-1.032 29.295-8.317 33.379-3.82 2.14-5.04 2.244-27.058 2.26-17.105.012-23.51.346-24.805 1.293-2.66 1.945-3.645 7.71-4.309 25.222-.591 15.613.63 31.193 2.711 34.567.715 1.159 5.575 1.53 25.354 1.933 27.177.556 27.322.592 32.357 7.99 2.173 3.194 2.25 4.095 2.25 26.467 0 17.995.305 23.577 1.366 25.028 1.01 1.382 3.282 2.06 8.75 2.611 8.049.811 42.377.302 47.671-.707 5.707-1.088 6.213-3.393 6.213-28.192 0-21.066.086-22.03 2.258-25.298 1.242-1.87 4.263-4.411 6.713-5.649 4.221-2.132 5.615-2.25 26.719-2.25 21.993 0 22.283-.027 23.715-2.25 4.371-6.785 4.12-54.62-.31-59.06-.822-.824-8.54-1.344-25.071-1.69-22.292-.467-24.071-.64-26.703-2.605-6.386-4.766-6.772-6.513-7.32-33.184-.393-19.046-.794-24.47-1.866-25.13-.752-.464-7.727-1.393-15.5-2.065-8.313-.72-18.273-.718-26.527-.203m-9.108 4.851c5.716-1.136 36.888-1.133 43.5 0l5 .858.5 23.488c.498 23.397.512 23.508 3.243 28.152 1.507 2.565 4.432 5.715 6.5 7 3.59 2.232 4.814 2.36 27.257 2.838l23.5.5.805 5.5c1.028 7.031 1.02 34.66-.014 42.5l-.79 6-23 .5c-25.952.564-28.167 1.108-33.936 8.342l-3.065 3.844-.859 24.156c-.473 13.287-.95 24.26-1.06 24.385s-3.325.679-7.141 1.23c-11.768 1.701-40.15.902-45.863-1.29-1.19-.457-1.5-4.77-1.76-24.52l-.317-23.965-3.105-3.842c-6.145-7.598-6.984-7.8-33.58-8.154l-23.686-.315-.814-5.685c-1.047-7.313-.797-38.319.355-44.186l.883-4.5 24.475-.5c23.467-.48 24.628-.597 28.232-2.838 2.067-1.285 4.992-4.435 6.5-7 2.73-4.644 2.742-4.756 3.24-28.136l.5-23.473Z" style="fill:#000"/></svg>
